X: 161026
T: P.Joe Hayes'
S: "Crossroads Dance" [Taylor/Mallinson]
Z: B.Black
R: reel
M: 4/4
L: 1/8
K: A
e2 cA BcAc|eAcA BAFA|e2 cA BcAc|ecBd cA A2 :|
A2 (3cBA e2 ce|fbba fa a2|A2 (3cBA ecAe|faec BAFB :|
